X: 40730
T: Toss The Feathers
R: reel
M: 4/4
K: Dmixolydian
D||D2AD EDAG|(3D=FD AG EAGE|D2AD EDEG|Adde cAGE|
{D=F} D2AD EDAG|(3D=FD AG EAGE|(3D=FD ED EGAB|cdAG EDD2||
Add^c (3d=fd cd|ed (3d=fd ed^cd|eaag ed^cd|ed^cd ed (3d=fd|
eaag efge|dged cAGE|(3D=FD ^CD EGAB|cded _BAGE||

